epam-assets/icon-sources/36/grow.svg

<svg width="36" height="36" viewBox="0 0 36 36" fill="none" xmlns="http://www.w3.org/2000/svg">
<path d="M20.4285 21.7647C21.5939 23.6285 22.2936 26.2673 22.2652 29.2941C23.1835 29.2941 36.0405 18 30.5304 2C24.1019 3.88235 14.9184 11.4118 14 16.1176C15.6122 16.5699 17.3706 17.7859 18.5918 18.9412C19.5101 16.1176 23.1835 12.3529 25.9386 10.4706C23.1835 14.2353 21.3468 17.0588 20.4285 21.7647Z" fill="#6C6F80"/>
<path d="M4 18C4.91835 26.4706 9.51011 33.0589 16.8569 34C16.8569 29.2941 11.3468 22.7059 9.51011 21.7647C15.0202 22.7059 18.6936 27.4118 20.5303 33.0589C20.5303 33.0589 21.4487 14.2353 4 18Z" fill="#6C6F80"/>
</svg>

<svg xmlns="http://www.w3.org/2000/svg" width="36" height="36" fill="none" viewBox="0 0 36 36">
  <path fill="#6C6F80" d="M20.428 21.765c1.166 1.863 1.866 4.502 1.837 7.53C23.183 29.294 36.041 18 30.53 2 24.102 3.882 14.918 11.412 14 16.118c1.612.452 3.37 1.668 4.592 2.823.918-2.823 4.591-6.588 7.347-8.47-2.756 3.764-4.592 6.588-5.51 11.294Z"/>
  <path fill="#6C6F80" d="M4 18c.918 8.47 5.51 15.059 12.857 16 0-4.706-5.51-11.294-7.347-12.235 5.51.94 9.184 5.647 11.02 11.294 0 0 .919-18.824-16.53-15.059Z"/>
</svg>
